X:1
T:The mountains of Norway
T:Halfdan Kjerulf
T:Henrik Wergeland
T:English words by Rasmus B. Anderson
%%score [ 1 2 3 4 ]
L:1/8
Q:1/4=100
M:4/4
K:D
V:1 treble-8 nm="T1"
V:2 treble-8 nm="T2"
V:3 bass nm="B1"
V:4 bass nm="B2"
V:1
"^Animato e ben marcato"!f! F3 F D2 B,2 | B3 B ^A2 F2 | f3 d B2 c2 | d6 z2 | %4
w: Nor- way's old- est|Forts and bol- dest,|Are its moun- tains|high.|
!mf!!<(! B3 B c2 c2!<)! |!>(! (c3 d)!>)! c2 z2 | d3!<(! d (fe)!<)! (de) |!>(! f2 d2!>)! z4 | %8
w: Dis- mal death there|bur- * rows,|Deep in rock- * y _|fur- rows.|
"^ben marcato" z8 |!mf! g3 g g2 f2 | z8 |!mf! B3 c d2 A2 | z8 |!f! f6 d2 | c3 d c2 z2 |1 %15
w: |Bea- cons shin- ing,||Tops de- fin- ing,||Day and|night es- py,|
 z4!p! F2!<(! F2 | d8-!<)! |!>(! d4 B4!>)! | B8- | B4 z4 :|2 z4!f! F2 F2 ||!<(! B8- | B4!<)! c4 | %23
w: Day and|night|_ es-|py.|_|Day and|night|_ es-|
!ff! f8- | !fermata!f4 z4 |] %25
w: py.|_|
V:2
!f! F3 F D2 B,2 | B3 B ^A2 F2 | d3 B F2 ^A2 | B6 z2 |!mf!!<(! B3 B c2 c2!<)! | %5
w: Nor- way's old- est|Forts and bol- dest,|Are its moun- tains|high.|Dis- mal death there|
!>(! (^A3 B)!>)! A2 z2 | B3!<(! B (dc)!<)! (Bc) |!>(! d2 A2!>)! z4 | z8 |!mf! d3 d d2 d2 | z8 | %11
w: bur- * rows,|Deep in rock- * y _|fur- rows.||Bea- cons shin- ing,||
!mf! A3 A A2 A2 | z8 |!f! d6 B2 | ^A3 B A2 z2 |1 z4!p! F2!<(! F2 | B8-!<)! |!>(! B4 F4!>)! | F8- | %19
w: Tops de- fin- ing,||Day and|night es- py,|Day and|night|_ es-|py.|
 F4 z4 :|2 z4!f! F2 F2 ||!<(! B8- | B4!<)! c4 |!ff! ^d8- | !fermata!d4 z4 |] %25
w: _|Day and|night|_ es-|py.|_|
V:3
!f! F,3 F, D,2 B,,2 | B,3 B, ^A,2 F,2 | B,3 F, F,2 F,2 | F,6 z2 |!mf!!<(! G,3 G, G,2 G,2!<)! | %5
w: Nor- way's old- est|Forts and bol- dest,|Are its moun- tains|high.|Dis- mal death there|
!>(! (F,3 ^E,)!>)! F,2 z2 | F,3!<(! F, A,2!<)! A,2 |!>(! A,2 F,2!>)! z4 |!f! D4 D,4 | B,4 A,4 | %10
w: bur- * rows,|Deep in rock- y|fur- rows.|Bea- cons|shin- ing,|
 A,4 A,,4 | G,4 F,4 | z8 |!f! F,6 F,2 | F,3 ^E, F,2 z2 |1 z4!p! F,2!<(! F,2 | F,8-!<)! | %17
w: Tops de-|fin- ing,||Day and|night es- py,|Day and|night|
!>(! F,4 D,4!>)! | D,8- | D,4 z4 :|2 z4!f! F,2 F,2 ||!<(! F,8- | F,4!<)! ^A,4 |!ff!!ff! (([F,B,]8 | %24
w: _ es-|py.|_|Day and|night|_ es-|py.|
 !fermata![F,B,]4)) z4 |] %25
w: _|
V:4
!f! F,3 F, D,2 B,,2 | B,3 B, ^A,2 F,2 | B,,3 B,, D,2 F,2 | B,,6 z2 |!mf!!<(! G,3 G, E,2 E,2!<)! | %5
w: Nor- way's old- est|Forts and bol- dest,|Are its moun- tains|high.|Dis- mal death there|
!>(! (F,3 ^E,)!>)! F,2 z2 | B,,3!<(! B,, A,,2!<)! A,,2 |!>(! D,2 D,2!>)! z4 | z8 | %9
w: bur- * rows,|Deep in rock- y|fur- rows.||
!mf! D,3 D, D,2 D,2 | z8 |!mf! A,,3 A,, D,2 D,2 | F,4 F,4 |!f! B,,6 D,2 | F,3 ^E, F,2 z2 |1 %15
w: Bea- cons shin- ing,||Tops de- fin- ing,|Day and|night, and|night es- py,|
 z4!p! F,2!<(! F,2 | B,,8-!<)! |!>(! B,,4 B,,4!>)! | B,,8- | B,,4 z4 :|2 z4!f! F,2 F,2 || %21
w: Day and|night|_ es-|py.|_|Day and|
!<(! ^D,8- | D,4!<)! F,4 |!ff! B,,8- | !fermata!B,,4 z4 |] %25
w: night|_ es-|py.|_|

